icons/HeartBeat_1_filled.svg

<svg width="24" height="24" viewBox="0 0 24 24" fill="none" xmlns="http://www.w3.org/2000/svg">
<path fill-rule="evenodd" clip-rule="evenodd" d="M3.80789,4.78481c1.10919,-1.18714 2.59419,-1.78484 4.081,-1.78484c1.43861,0 2.58971,0.43347 3.37911,0.86553c0.2934,0.16056 0.5385,0.32177 0.732,0.46228c0.1935,-0.14051 0.4386,-0.30172 0.732,-0.46228c0.7894,-0.43206 1.9405,-0.86553 3.3791,-0.86553c1.4868,0 2.9718,0.5977 4.081,1.78484c1.1126,1.1908 1.8079,2.93031 1.8079,5.15266c0,3.31613 -2.3511,6.08723 -4.6073,7.95733c-1.1481,0.9516 -2.3192,1.71 -3.257,2.2328c-0.4688,0.2613 -0.8865,0.4678 -1.2207,0.6115c-0.1663,0.0715 -0.3203,0.1311 -0.4547,0.1743c-0.1092,0.035 -0.2849,0.0866 -0.4603,0.0866c-0.1754,0 -0.3511,-0.0516 -0.4603,-0.0866c-0.1344,-0.0432 -0.2884,-0.1028 -0.4547,-0.1743c-0.3342,-0.1437 -0.7519,-0.3502 -1.22066,-0.6115c-0.9378,-0.5228 -2.10893,-1.2812 -3.25701,-2.2328c-2.25618,-1.8701 -4.60733,-4.6412 -4.60733,-7.95733c0,-2.22235 0.69528,-3.96187 1.80789,-5.15266zM11.1708,8.16456c-0.1271,-0.25409 -0.3868,-0.41459 -0.6709,-0.41459c-0.284,0 -0.54374,0.1605 -0.67078,0.41459l-1.29271,2.58544h-1.78647c-0.41421,0 -0.75,0.3358 -0.75,0.75c0,0.4142 0.33579,0.75 0.75,0.75h2.25c0.28408,0 0.54378,-0.1605 0.67082,-0.4146l0.82914,-1.6584l2.3292,4.6584c0.1271,0.2541 0.3868,0.4146 0.6708,0.4146c0.2841,0 0.5438,-0.1605 0.6709,-0.4146l1.2927,-2.5854h1.7864c0.4143,0 0.75,-0.3358 0.75,-0.75c0,-0.4142 -0.3357,-0.75 -0.75,-0.75h-2.25c-0.284,0 -0.5437,0.1605 -0.6708,0.4146l-0.8292,1.6583z" fill="#002B51"/>
</svg>

<svg width="24" height="24" viewBox="0 0 24 24" fill="none" xmlns="http://www.w3.org/2000/svg">
<path fill-rule="evenodd" clip-rule="evenodd" d="M3.80789 4.78481C4.91708 3.59767 6.40208 2.99997 7.88889 2.99997C9.3275 2.99997 10.4786 3.43344 11.268 3.8655C11.5614 4.02606 11.8065 4.18727 12 4.32778C12.1935 4.18727 12.4386 4.02606 12.732 3.8655C13.5214 3.43344 14.6725 2.99997 16.1111 2.99997C17.5979 2.99997 19.0829 3.59767 20.1921 4.78481C21.3047 5.97561 22 7.71512 22 9.93747C22 13.2536 19.6489 16.0247 17.3927 17.8948C16.2446 18.8464 15.0735 19.6048 14.1357 20.1276C13.6669 20.3889 13.2492 20.5954 12.915 20.7391C12.7487 20.8106 12.5947 20.8702 12.4603 20.9134C12.3511 20.9484 12.1754 21 12 21C11.8246 21 11.6489 20.9484 11.5397 20.9134C11.4053 20.8702 11.2513 20.8106 11.085 20.7391C10.7508 20.5954 10.3331 20.3889 9.86434 20.1276C8.92654 19.6048 7.75541 18.8464 6.60733 17.8948C4.35115 16.0247 2 13.2536 2 9.93747C2 7.71512 2.69528 5.9756 3.80789 4.78481ZM11.1708 8.16456C11.0437 7.91047 10.784 7.74997 10.4999 7.74997C10.2159 7.74997 9.95616 7.91047 9.82912 8.16456L8.53641 10.75H6.74994C6.33573 10.75 5.99994 11.0858 5.99994 11.5C5.99994 11.9142 6.33573 12.25 6.74994 12.25H8.99994C9.28402 12.25 9.54372 12.0895 9.67076 11.8354L10.4999 10.177L12.8291 14.8354C12.9562 15.0895 13.2159 15.25 13.4999 15.25C13.784 15.25 14.0437 15.0895 14.1708 14.8354L15.4635 12.25H17.2499C17.6642 12.25 17.9999 11.9142 17.9999 11.5C17.9999 11.0858 17.6642 10.75 17.2499 10.75H14.9999C14.7159 10.75 14.4562 10.9105 14.3291 11.1646L13.4999 12.8229L11.1708 8.16456Z" fill="#002B51"/>
</svg>
